dist/assets/svg/arrow-burger.svg

<svg xmlns="http://www.w3.org/2000/svg" width="12" height="12" fill="none" viewBox="0 0 12 12"><path fill="#fff" d="M9.33352 5.53176L3.99337 0.191706C3.86985 0.068097 3.70498 0 3.52917 0C3.35337 0 3.18849 0.068097 3.06498 0.191706L2.67172 0.584873C2.41582 0.841066 2.41582 1.25745 2.67172 1.51326L7.15597 5.99751L2.66674 10.4867C2.54323 10.6104 2.47504 10.7751 2.47504 10.9508C2.47504 11.1267 2.54323 11.2915 2.66674 11.4152L3.06001 11.8083C3.18362 11.9319 3.3484 12 3.5242 12C3.7 12 3.86488 11.9319 3.98839 11.8083L9.33352 6.46336C9.45732 6.33936 9.52532 6.1738 9.52493 5.99781C9.52532 5.82112 9.45732 5.65566 9.33352 5.53176Z"/></svg>

<svg xmlns="http://www.w3.org/2000/svg" width="12" height="12" fill="none" viewBox="0 0 12 12"><path fill="#fff" d="M9.334 5.532 3.994.192A.65.65 0 0 0 3.528 0a.65.65 0 0 0-.464.192l-.393.393a.657.657 0 0 0 0 .928l4.484 4.485-4.49 4.489a.65.65 0 0 0-.191.464c0 .176.068.34.192.464l.393.393a.65.65 0 0 0 .464.192.65.65 0 0 0 .464-.192l5.346-5.345a.65.65 0 0 0 .19-.465.65.65 0 0 0-.19-.466"/></svg>
